X: 1
T: Leaking Roof, The
M: 4/4
L: 1/8
R: barndance
K: Gmaj
|:D2 E G3 A2|BG  c>B (A2 F2)|EG AF (G2 E2)|D2 E G3 A2|
BG (3cdc A2 GF|EG BG AF E2-|E2 F2 G2 A2:|
|:df af  e2 d2|ce Be ce Be|f2 g2 f2 e2|d2 B2 (3cBc a2|
FA EA FA EA|ce Be ce Be|1 FA EA G2 c2:|2 df cf g2 g2|
